assets/svgs/shopping-color/ShoppingColor11.svg

<svg xmlns="http://www.w3.org/2000/svg" data-name="Layer 3" viewBox="0 0 128 128"><path fill="#f0e9e0" d="M33.538 85.5v12.569c0 2.7 3.444 4.912 7.653 4.912h45.618a7.676 7.676 0 007.653-7.653V32.672a7.676 7.676 0 00-7.653-7.653H41.191a7.676 7.676 0 00-7.653 7.653V85.5z"/><path fill="#f7f7f7" d="M39.469 98.069v-65.4a7.676 7.676 0 017.653-7.653h-5.931a7.676 7.676 0 00-7.653 7.653v65.4c0 2.7 3.444 4.912 7.653 4.912h5.931c-4.209 0-7.653-2.211-7.653-4.912z"/><path fill="#ff4948" d="M78.208 73.617h10.141v10.141H78.208z"/><path fill="#231f20" d="M73.138 43.387H42.525a1.531 1.531 0 100 3.061h30.613a1.531 1.531 0 100-3.061zM78.686 46.448h9.184a1.531 1.531 0 000-3.061h-9.184a1.531 1.531 0 000 3.061zM78.686 55.989h9.184a1.531 1.531 0 000-3.061h-9.184a1.531 1.531 0 000 3.061zM78.686 65.531h9.184a1.531 1.531 0 000-3.061h-9.184a1.531 1.531 0 000 3.061zM73.138 52.928H42.525a1.531 1.531 0 100 3.061h30.613a1.531 1.531 0 100-3.061zM73.138 62.469H42.525a1.531 1.531 0 100 3.061h30.613a1.531 1.531 0 100-3.061zM88.348 72.087h-10.14a1.53 1.53 0 00-1.531 1.531v10.14a1.53 1.53 0 001.531 1.531h10.14a1.53 1.53 0 001.531-1.531V73.617a1.53 1.53 0 00-1.531-1.53zm-1.53 10.14h-7.079v-7.079h7.079z"/><path fill="#231f20" d="M95.993 31.795a1.519 1.519 0 00-.132-.614 9.19 9.19 0 00-9.052-7.692H41.191a9.19 9.19 0 00-9.052 7.693 1.517 1.517 0 00-.132.614 1.43 1.43 0 00.036.176 9.036 9.036 0 00-.036.7v65.4c0 3.613 4.034 6.442 9.184 6.442h45.618a9.2 9.2 0 009.138-8.282 1.447 1.447 0 00.046-.232c0-.048-.023-.089-.027-.136.011-.18.027-.358.027-.54V32.672c0-.237-.018-.469-.035-.7a1.431 1.431 0 00.035-.177zM35.069 94.473V33.326h57.862v61.147zm6.122-67.923h45.618a6.129 6.129 0 015.626 3.714h-56.87a6.129 6.129 0 015.626-3.714zm45.618 74.9H41.191c-3.608 0-6.123-1.782-6.123-3.381v-.535H92.5a6.119 6.119 0 01-5.691 3.916z"/></svg>

<svg id="Layer_3" data-name="Layer 3" xmlns="http://www.w3.org/2000/svg" viewBox="0 0 128 128"><title>Artboard 107</title><path d="M33.538,85.5V98.069c0,2.7,3.444,4.912,7.653,4.912H86.809a7.676,7.676,0,0,0,7.653-7.653V32.672a7.676,7.676,0,0,0-7.653-7.653H41.191a7.676,7.676,0,0,0-7.653,7.653V85.5Z" style="fill:#f0e9e0"/><path d="M39.469,98.069v-65.4a7.676,7.676,0,0,1,7.653-7.653H41.191a7.676,7.676,0,0,0-7.653,7.653v65.4c0,2.7,3.444,4.912,7.653,4.912h5.931C42.913,102.981,39.469,100.77,39.469,98.069Z" style="fill:#f7f7f7"/><rect x="78.208" y="73.617" width="10.141" height="10.141" style="fill:#ff4948"/><path d="M73.138,43.387H42.525a1.531,1.531,0,1,0,0,3.061H73.138a1.531,1.531,0,1,0,0-3.061Z" style="fill:#231f20"/><path d="M78.686,46.448H87.87a1.531,1.531,0,0,0,0-3.061H78.686a1.531,1.531,0,0,0,0,3.061Z" style="fill:#231f20"/><path d="M78.686,55.989H87.87a1.531,1.531,0,0,0,0-3.061H78.686a1.531,1.531,0,0,0,0,3.061Z" style="fill:#231f20"/><path d="M78.686,65.531H87.87a1.531,1.531,0,0,0,0-3.061H78.686a1.531,1.531,0,0,0,0,3.061Z" style="fill:#231f20"/><path d="M73.138,52.928H42.525a1.531,1.531,0,1,0,0,3.061H73.138a1.531,1.531,0,1,0,0-3.061Z" style="fill:#231f20"/><path d="M73.138,62.469H42.525a1.531,1.531,0,1,0,0,3.061H73.138a1.531,1.531,0,1,0,0-3.061Z" style="fill:#231f20"/><path d="M88.348,72.087H78.208a1.53,1.53,0,0,0-1.531,1.531V83.758a1.53,1.53,0,0,0,1.531,1.531H88.348a1.53,1.53,0,0,0,1.531-1.531V73.617A1.53,1.53,0,0,0,88.348,72.087ZM86.818,82.227H79.739V75.148h7.079Z" style="fill:#231f20"/><path d="M95.993,31.795a1.519,1.519,0,0,0-.132-.614,9.19,9.19,0,0,0-9.052-7.692H41.191a9.19,9.19,0,0,0-9.052,7.693,1.517,1.517,0,0,0-.132.614,1.43,1.43,0,0,0,.036.176c-.018.232-.036.465-.036.7v65.4c0,3.613,4.034,6.442,9.184,6.442H86.809a9.2,9.2,0,0,0,9.138-8.282A1.447,1.447,0,0,0,95.993,96c0-.048-.023-.089-.027-.136.011-.18.027-.358.027-.54V32.672c0-.237-.018-.469-.035-.7A1.431,1.431,0,0,0,95.993,31.795ZM35.069,94.473V33.326H92.931V94.473ZM41.191,26.55H86.809a6.129,6.129,0,0,1,5.626,3.714H35.565A6.129,6.129,0,0,1,41.191,26.55Zm45.618,74.9H41.191c-3.608,0-6.123-1.782-6.123-3.381v-.535H92.5A6.119,6.119,0,0,1,86.809,101.45Z" style="fill:#231f20"/></svg>
